X:1
T:Ojos garços a la niña
T:Mateo Flecha el Viejo (?)
T:Source : Cancionero de Uppsala : Villancicos---Venetia---G.Scotto---1556. Editor : André Vierendeels (27/04/17).
T:Notes : Original clafs :  C2 (from m 21 : C1), C3, C3 F3 Editorial accidentals above the staff Original note values have been halved
T:Ojos garços a la niña
T:©
T:©
T:©
T:©
C:Mateo Flecha el Viejo (?)
Z:©
%%score [ 1 [ 2 3 ] 4 ]
L:1/8
Q:1/4=120
M:4/4
K:C
V:1 treble nm="Alto" snm="A"
V:2 treble-8 nm="Tenor 1" snm="T 1"
V:3 treble-8 nm="Tenor 2" snm="T 2"
V:4 bass nm="Bass" snm="B"
V:1
 z8 | z8 | z8 | z8 | E3 E E2 E2 | C2 C2 D4 | C4 z2 G2 | AB c4 B2 | c4 z2 c2 | c4 c2 B2- | %10
w: ||||O- jos gar- ços|a la ni-|ña a|la ni- * *|ña, qui-|en se- los|
w: ||||Y- los ha- ze-|tan es- qui-|vos tan-|nes _ qui- *|vos, que|Ro- ban el|
 B2 A2 G2 A2- | A2 G2 A4 | z2 E2 A4 | E2 G4 E2 |: E2 D2 E4 |[M:2/4] C4 ::[M:4/4] z2 c2 c3 B | %17
w: _ en- a- mo|_ ri- a,|qui- en|se- los en-|a- mo- ria-|ria,|qui- en sel-|
w: _ a- le- gri-|* * a|que Ro-|ban el a-|le- gri- *|a,|qui'en se- los|
 cA B2- BA A2 | G2 A4 G2 | A8 :|[M:2/2] E6 E2 | A4 G4 | z2 G2 AB c2- | c2 B2 c4 | z2 c2 c2 B2- | %25
w: os en- a- * mo- *|* ri- *|a,|Son tan|lin- dos|y tan bi- *|* * vos,|y tan bi-|
w: en- a- mo- * * *|* ri- *|a.|Yo so-|* lo,|la vi- sta- *|* del- los,|me a Ro-|
"^#" BA A4 G2 | A4 z2 E2 | E2 D2 E4 | z2 E2 E2 D2 | E8 | E8- | E8 :| %32
w: |vos, que|a to- dos|tie- nen ca-|ti-|vos.|_|
w: * * ba- *|do, los|sen- ti- dos,|los sen- *|ti-|dos.|_|
V:2
 e3 e e2 e2 | c2 c2 d4 | c4 z2 G2 | AB c4 B2 | c3 B G4 | AB c4 B2 | c8 | e4 g4- | g4 z2 g2 | %9
w: O- jos gar- ços|a la ni-|ña a|la ni- * *|ña, _ _|a- la ni- *||* ña,|_ qui-|
w: Y- los ha- ze-|tan es- qui-|vos, tan|es- qui- * *|vos, _ _|tan es- qui- *||* vos,|_ que|
 g4 g4 | g2 e2 e2 d2 | e4 e4 | z2 e2 e3 d | ec d4 c2 |: B2 A2 B4 |[M:2/4] A4 ::[M:4/4] G2 g2 g4 | %17
w: en se-|los en- a- mo-|ri- a,|qui- en sel-|los en- a- mo-|ri- * *|a,|qui- en se-|
w: Ro- ban|_ el a- le-|gri- a,|qui- en se-|los en- a- mo-|ri- * *|a,|qui- en se-|
 g2 g2 g2 e2 | e2 d2 e4 | e8 :|[M:2/2] g6 g2 | f4 e4 | z2 e2 f2 e2 | g4 g4 | g4 g2 g2 | e2 f2 e4 | %26
w: los en- a- mo-|ri- * *|a,|Son tan|lin- dos|y tan bi-|vos, que|a to- dos,|to- * dos,|
w: los en- a- mo-|ri- * *|a,|Y so-|* lo,|la vi- sta-|del- los,|me- a Ro-|ba- * do,|
 z2 c2 c2 B2- | BA A4 G2 | A2 G2 A4 | B4 c4 | c8 |"^#" B8 :| %32
w: tie- nen _|_ ca- ti- *|vos, tie- nen|ca- *|ti-|vos.|
w: los sen- ti-||dos, los sen-||ti-|dos,|
V:3
 z8 | z8 | z8 | z8 | z8 | z8 | e3 e e2 e2 | c2 c2 d4 | c4 e4 | e2 e2 e2 d2- | d2 c2 B2 A2 | B4 A4 | %12
w: ||||||O- jos gar- ços|a la ni-|ña, qui|en se- los en-|* a- mo- ri-|* a,|
w: ||||||Y- los ha- ze-|tan es- qui-|vos, que|Ro- ban el a-|* le- gri- *|* a,|
 z2 c2 c3 B | cA B3 A A2 |:"^#" G2 A4 G2 |[M:2/4] A4 ::[M:4/4] e4 e3 d | ec d4 c2 | B2 A2 B4 | %19
w: qui- en sel-|s en- a- mo- ri-||a,|qui- en sel-|os en- a- mo-|ri- * *|
w: qui- en se-|los en- a- mo- ri-||a,|qui- en se-|los en- a- mo-|ri- * *|
 A8 :|[M:2/2] c6 c2 | c4 c4 | z2 c2 c4 | d4 c4 | e4 e2 d2 | c2 d2 B4 | z2 A2 A2 G2 | A4 B4 | %28
w: a.|Son tan|lin- dos|y tan|bi- vos,|y tan bi-|* * vos,|que- a to-|dos tie-|
w: a.|Y so-|* lo,|la vi-|sta- del-|los, me a|Ro ba- do,|me- a Ro-|ba- do|
 c2 B3 A A2- |"^#" A2 G2 A4- | A8 | G8 :| %32
w: nen ca- * ti-|* * nos.|_||
w: el a- le- gri-|* * a.|_||
V:4
 z8 | z8 | E,3 E, E,2 E,2 | C,2 C,2 D,4 | C,3 D, E,F, E,2 | F,G, A,2 G,4 | C,6 C,2 | C,2 C,2 G,4 | %8
w: ||O- jos gar- ços|a la ni-||* * * ña,|qui- en|se- los en-|
w: ||Y- los ha- ze|tan es- qui-||* * * vos,|que Ro-|ban el a-|
 C,4 C,4 | C,2 C,2 C,2 G,2- | G,2 A,2 E,2 F,2 | E,4 A,,4 | A,4 A,4 | A,2 G,4 A,2 |: %14
w: a- ma-|ri- a, qui- en|_ se- los en-|a- mo-|ri- a,|qui- en se-|
w: le- gri-|a, qui- en se-|* * los en|a- mo-|ri- a,|qui'en se- los|
"^#" E,2 F,2 E,4 |[M:2/4] A,,4 ::[M:4/4] C,4 C,2 C,2 | C,2 G,4 A,2 | E,2 F,2 E,4 | A,,8 :| %20
w: los _ _|a,|qui- en se-|los en- a-|mo- * ri-|a,|
w: en- a- mo-|ra,|qui- en se-|los en- mo-|* * ri-|a,|
[M:2/2] C,6 C,2 | F,4 C,4- | C,2 C,2 F,2 A,2 | G,4 C,4 | C,4 C,2 G,2 | A,2 D,2 E,4 | A,,4 z2 E,2 | %27
w: Son tan|lin- dos|_ y tan bi-|* vos,|y tan bi-||vos, que-|
w: Y so-|* lo,|_ la vi- sta-|del- los,|la vi- sta-|del- * *|los, me|
 F,2 F,2 E,4 | A,,2 E,2 F,2 F,2 | E,4 A,,4- | A,,8 | E,8 :| %32
w: a to- dos|tie- * nen ca-|ti- *||vos.|
w: a Ro- ba-|do el a- le-|gri- *||a.|

